X:1
T:Ghibli Medley
T:Merry-Go-Round of Life
T:Joe Hisaishi Rearranged by Grace L. 
T:Howl`s Moving Castle
%%score 1 2
L:1/8
Q:1/4=110
M:3/4
K:F
V:1 treble nm="Flute" snm="Fl."
V:2 treble nm="Flute" snm="Fl."
V:1
"^\n" ab ab ab | ga ga ga | fg fg fg | e/d/ ^c4- c | z4 z2 | z6 | A2 d2 f2 | a4 a2 | g2 f2 e2 | %9
 f4- f2 | d2 f2 a2 | d'4 d'2 | d'2 c'2 b2 | c'4- c'2 | f2 a2 c'2 | e'4 d'2 | c'2 =b2 c'2 | %17
 d'4 c'2 | =b4 a2 | g2 f2 g2 | a2 g2 d2 | e4- e2- | e6- | e z z4 |[Q:1/4=160]"^\n" z2 d'2 d'2 | %25
 z2 d'2 d'2 | z2 d'2 d'2 | A2 f2 a2 | g2 c'2 c'2 | c2 b2 b2 | c2 a2 a2 | c2 a2 a2 | g2 b2 b2 | %33
 c2 b2 b2 | f2 e2 e2 | c2 f2 g2 | B2 a2 a2 | E2 d2 e2 | A2 f2 f2 | G2 d2 d2 | E2 c2 c2 | E2 E2 f2 | %42
 g6- | g6 |] %44
V:2
 fg fg fg | ef ef ef | de de de | ^c/=B/ A4- A | Ad ^fa d'2- | d'6 | A2 d2 d2 | f4 f2 | e2 d2 ^c2 | %9
 d4- d2 | d2 f2 f2 | b4 b2 | b2 a2 g2 | a4- a2 | d2 a2 a2 | c'4 =b2 | a2 g2 a2 | =b4 a2 | g4 f2 | %19
 e2 d2 e2 | f2 g2 d2 | e4- e2- | e6- | e z z4 | d2 a2 a2 | A2 e2 e2 | d2 a2 a2 | A2 d2 f2 | a4 a2 | %29
 g2 f2 e2 | f4- f2 | d2 f2 a2 | d'4 d'2 | d'2 c'2 b2 | c'4- c'2 | f2 a2 c'2 | e'4 d'2 | %37
 c'2 =b2 c'2 | d'4 c'2 | =b4 a2 | g2 f2 g2 | a2 g2 d2 | e6- | e6 |] %44

